static/images/icon-instagram.svg

<svg fill="none" viewBox="0 0 18 18" xmlns="http://www.w3.org/2000/svg"><path clip-rule="evenodd" d="m13.2893 3.15814c-.5873 0-1.0644.48436-1.0644 1.08326 0 .59808.4771 1.08326 1.0644 1.08326.5881 0 1.0652-.48518 1.0652-1.08326 0-.5989-.4771-1.08326-1.0652-1.08326zm-4.43942 8.81986c-1.61389 0-2.9277-1.336-2.9277-2.97894 0-1.64207 1.31381-2.97732 2.9277-2.97732 1.61472 0 2.92852 1.33525 2.92852 2.97732 0 1.64294-1.3138 2.97894-2.92852 2.97894zm0-7.63269c-2.52221 0-4.57458 2.08797-4.57458 4.65375 0 2.56664 2.05237 4.65454 4.57458 4.65454 2.52302 0 4.57542-2.0879 4.57542-4.65454 0-2.56578-2.0524-4.65375-4.57542-4.65375zm7.18292 7.19659c-.0081.5605-.0298 1.1586-.1336 1.7247-.2816 1.5407-1.1416 2.4775-2.6284 2.8645-.683.1775-1.4103.1832-2.1795.1881h-.008c-.3741.0025-.7579.0033-1.17304.0033-1.04429 0-2.10788-.0074-3.13769-.0155l-.69109-.0049c-.50847-.0041-1.10543-.0279-1.68148-.1768-1.12635-.2912-1.89226-.9327-2.3428-1.9611-.28481-.6537-.34917-1.3762-.37411-1.9972-.00563-.1342-.01529-.261-.02575-.3837l-.00965-.1227v-5.26168c.01046-.05319.02333-.12764.02574-.21355.0177-.61608.04264-1.16916.17298-1.6977.28883-1.16671.93245-1.95543 1.96869-2.41115.62996-.27736 1.32668-.33954 1.92526-.36491.13194-.00572.25745-.01636.37813-.02618l.11987-.00982h5.17714c.0427.009.0966.01719.1585.02291.1754.01555.3492.02618.5165.036.3331.02046.6469.03927.9373.09409.7611.14564 1.3822.44018 1.844.87463.4634.43772.7957 1.0448.9872 1.8057.1714.68154.1778 1.40889.185 2.17715v.06628c.0145 1.60934.0113 3.22114-.0112 4.78953zm1.6589-4.80426-.0008-.06627c-.0072-.83536-.0153-1.69934-.2357-2.57806-.5399-2.1477-1.9663-3.500136-4.1241-3.910858-.3926-.075272-.7739-.0981804-1.1432-.120271-.1593-.0089999-.3106-.0188179-.4594-.0319087-.008-.0016363-.0153-.0032727-.0233-.004909-.0217-.0032727-.0435-.0081817-.0668-.0122726l-.0708-.0130907h-5.39119l-.02976.00245451c-.05471.00409086-.11022.00818169-.16413.01309069-.10942.0089999-.2124.0179998-.30894.0220907-.70638.0294541-1.62999.1129071-2.51256.5007211-1.51736.667623-2.496474 1.858883-2.911614 3.540223-.1673434.67745-.2011339 1.34017-.2212473 2.01434-.0056317.02536-.0104589.04991-.0152861.07445l-.0128726.07282v5.48341l.0024136.0302c.00402268.0565.0088499.1121.0136771.1678.0088499.1104.0168952.2143.0209179.3133.0289633.7339.1150484 1.6928.5157064 2.61.658915 1.5071 1.817445 2.4848 3.441805 2.9037.75143.1947 1.50287.2242 2.07409.2291l.6919.0049c1.03221.0073 2.09903.0163 3.14975.0163.41914 0 .80614-.0016 1.18344-.004h.0081c.8351-.0058 1.6992-.0115 2.5769-.2406 2.1119-.5498 3.4402-1.9955 3.84-4.1808.1264-.6922.1521-1.4032.161-2.0078.0217-1.58156.0265-3.20563.012-4.82806z" fill-rule="evenodd"/></svg>

<svg viewBox="0 0 18 18" fill="none" xmlns="http://www.w3.org/2000/svg">
<path fill-rule="evenodd" clip-rule="evenodd" d="M13.2893 3.15814C12.702 3.15814 12.2249 3.6425 12.2249 4.2414C12.2249 4.83948 12.702 5.32466 13.2893 5.32466C13.8774 5.32466 14.3545 4.83948 14.3545 4.2414C14.3545 3.6425 13.8774 3.15814 13.2893 3.15814ZM8.84988 11.978C7.23599 11.978 5.92218 10.642 5.92218 8.99906C5.92218 7.35699 7.23599 6.02174 8.84988 6.02174C10.4646 6.02174 11.7784 7.35699 11.7784 8.99906C11.7784 10.642 10.4646 11.978 8.84988 11.978ZM8.84988 4.34531C6.32767 4.34531 4.2753 6.43328 4.2753 8.99906C4.2753 11.5657 6.32767 13.6536 8.84988 13.6536C11.3729 13.6536 13.4253 11.5657 13.4253 8.99906C13.4253 6.43328 11.3729 4.34531 8.84988 4.34531ZM16.0328 11.5419C16.0247 12.1024 16.003 12.7005 15.8992 13.2666C15.6176 14.8073 14.7576 15.7441 13.2708 16.1311C12.5878 16.3086 11.8605 16.3143 11.0913 16.3192H11.0833C10.7092 16.3217 10.3254 16.3225 9.91026 16.3225C8.86597 16.3225 7.80238 16.3151 6.77257 16.307L6.08148 16.3021C5.57301 16.298 4.97605 16.2742 4.4 16.1253C3.27365 15.8341 2.50774 15.1926 2.0572 14.1642C1.77239 13.5105 1.70803 12.788 1.68309 12.167C1.67746 12.0328 1.6678 11.906 1.65734 11.7833L1.64769 11.6606V6.39892C1.65815 6.34573 1.67102 6.27128 1.67343 6.18537C1.69113 5.56929 1.71607 5.01621 1.84641 4.48767C2.13524 3.32096 2.77886 2.53224 3.8151 2.07652C4.44506 1.79916 5.14178 1.73698 5.74036 1.71161C5.8723 1.70589 5.99781 1.69525 6.11849 1.68543L6.23836 1.67561H11.4155C11.4582 1.68461 11.5121 1.6928 11.574 1.69852C11.7494 1.71407 11.9232 1.7247 12.0905 1.73452C12.4236 1.75498 12.7374 1.77379 13.0278 1.82861C13.7889 1.97425 14.41 2.26879 14.8718 2.70324C15.3352 3.14096 15.6675 3.74804 15.859 4.50894C16.0304 5.19048 16.0368 5.91783 16.044 6.68609V6.75237C16.0585 8.36171 16.0553 9.97351 16.0328 11.5419ZM17.6917 6.73764L17.6909 6.67137C17.6837 5.83601 17.6756 4.97203 17.4552 4.09331C16.9153 1.94561 15.4889 0.593174 13.3311 0.182452C12.9385 0.10718 12.5572 0.0842716 12.1879 0.062181C12.0286 0.0531811 11.8773 0.0433631 11.7285 0.0302723C11.7205 0.028636 11.7132 0.0269996 11.7052 0.0253633C11.6835 0.0220906 11.6617 0.0171816 11.6384 0.0130907L11.5676 0H6.17641L6.14665 0.00245451C6.09194 0.00654537 6.03643 0.0106362 5.98252 0.0155452C5.8731 0.0245451 5.77012 0.033545 5.67358 0.0376359C4.9672 0.06709 4.04359 0.150543 3.16102 0.538357C1.64366 1.20598 0.664546 2.39724 0.249406 4.07858C0.0820626 4.75603 0.0482721 5.41875 0.0281587 6.09292C0.022527 6.11828 0.0176998 6.14283 0.0128726 6.16737L0 6.24019V11.7236L0.0024136 11.7538C0.00643628 11.8103 0.0112635 11.8659 0.0160907 11.9216C0.0249406 12.032 0.0329859 12.1359 0.0370086 12.2349C0.0659719 12.9688 0.152057 13.9277 0.552715 14.8449C1.21163 16.352 2.37016 17.3297 3.99452 17.7486C4.74595 17.9433 5.49739 17.9728 6.06861 17.9777L6.76051 17.9826C7.79272 17.9899 8.85954 17.9989 9.91026 17.9989C10.3294 17.9989 10.7164 17.9973 11.0937 17.9949H11.1018C11.9369 17.9891 12.801 17.9834 13.6787 17.7543C15.7906 17.2045 17.1189 15.7588 17.5187 13.5735C17.6451 12.8813 17.6708 12.1703 17.6797 11.5657C17.7014 9.98414 17.7062 8.36007 17.6917 6.73764Z" />
</svg>
